src/assets/img/facebook-logo.svg

<svg version="1.2" baseProfile="tiny-ps" xmlns="http://www.w3.org/2000/svg" width="40" height="40"><style></style><g id="Login"><path id="Shape 1" d="M20.01 0C8.96 0 0 8.95 0 19.99c0 11.05 8.96 20 20.01 20s20-8.95 20-20C40.01 8.95 31.06 0 20.01 0m5.19 13.32h-1.88c-1.48 0-1.76.7-1.76 1.73v2.27h3.52l-.46 3.55h-3.06v9.12h-3.68v-9.12h-3.07v-3.55h3.07V14.7c0-3.05 1.86-4.7 4.58-4.7 1.3 0 2.42.09 2.74.14v3.18Z" style="fill:#1778f2"/></g></svg>

<svg version="1.2" baseProfile="tiny-ps" xmlns="http://www.w3.org/2000/svg" viewBox="0 0 40 40" width="40" height="40">
	<title>Login</title>
	<style>
		tspan { white-space:pre }
		.shp0 { fill: #1778f2 } 
	</style>
	<g id="Login">
		<path id="Shape 1" class="shp0" d="M20.01 0C8.96 0 0 8.95 0 19.99C0 31.04 8.96 39.99 20.01 39.99C31.06 39.99 40.01 31.04 40.01 19.99C40.01 8.95 31.06 0 20.01 0M25.2 13.32L23.32 13.32C21.84 13.32 21.56 14.02 21.56 15.05L21.56 17.32L25.08 17.32L24.62 20.87L21.56 20.87L21.56 29.99L17.88 29.99L17.88 20.87L14.81 20.87L14.81 17.32L17.88 17.32L17.88 14.7C17.88 11.65 19.74 10 22.46 10C23.76 10 24.88 10.09 25.2 10.14L25.2 13.32Z" />
	</g>
</svg>
